KINDER
CUT[ES KUMME SECHS BOLLACHA]
REG[Europa, Mitteleuropa, Deutschland, Maehren, Kuhlaendchen]
KEY[K0113  16  G 2/4]
MEL[1_  5_5_6_6_  5__3_
    1_  5_5_6_6_  5__3_
    5_  5_.42_3_  4_5_3__
    5_4_2_3_  4_5_3_
    5_  5_.42_3_  4_5_3__
    5_4_2_3_  4_5_3_ //] >>
FCT[Kinder -, Wiegen - Lied]
